actions/16/format-precision-more.svg

<svg xmlns="http://www.w3.org/2000/svg" style="fill-rule:evenodd;clip-rule:evenodd;stroke-linejoin:round;stroke-miterlimit:2" width="100%" height="100%" viewBox="0 0 16 16" xml:space="preserve">
 <defs>
  <style id="current-color-scheme" type="text/css">
   .ColorScheme-Text { color:#dfdfdf; } .ColorScheme-Highlight { color:#4285f4; } .ColorScheme-NeutralText { color:#ff9800; } .ColorScheme-PositiveText { color:#4caf50; } .ColorScheme-NegativeText { color:#f44336; }
  </style>
 </defs>
 <path style="fill:currentColor;" class="ColorScheme-Text" d="M5.5,2c-1.381,0 -2.5,1.119 -2.5,2.5l0,3c0,1.381 1.119,2.5 2.5,2.5c1.381,0 2.5,-1.119 2.5,-2.5l0,-3c0,-1.381 -1.119,-2.5 -2.5,-2.5Zm6,0c-1.381,0 -2.5,1.119 -2.5,2.5l0,3c0,1.381 1.119,2.5 2.5,2.5c1.381,0 2.5,-1.119 2.5,-2.5l0,-3c0,-1.381 -1.119,-2.5 -2.5,-2.5Zm-6,1c0.828,0 1.5,0.672 1.5,1.5l0,3c0,0.828 -0.672,1.5 -1.5,1.5c-0.828,0 -1.5,-0.672 -1.5,-1.5l0,-3c0,-0.828 0.672,-1.5 1.5,-1.5Zm6,0c0.828,0 1.5,0.672 1.5,1.5l0,3c0,0.828 -0.672,1.5 -1.5,1.5c-0.828,0 -1.5,-0.672 -1.5,-1.5l0,-3c0,-0.828 0.672,-1.5 1.5,-1.5Zm-9.5,6l0,1l1,0l0,-1l-1,0Z"/>
 <path style="fill:currentColor;" class="ColorScheme-Highlight" d="M11,9l0,2l-2,0l0,1l2,0l0,2l1,0l0,-2l2,0l0,-1l-2,0l0,-2l-1,0Z"/>
</svg>

<svg xmlns="http://www.w3.org/2000/svg" style="fill-rule:evenodd;clip-rule:evenodd;stroke-linejoin:round;stroke-miterlimit:2" viewBox="0 0 16 16" xml:space="preserve">
    <defs>
        <style id="current-color-scheme" type="text/css">
            .ColorScheme-NeutralText{color:#ff9800}.ColorScheme-PositiveText{color:#4caf50}.ColorScheme-NegativeText{color:#f44336}
        </style>
    </defs>
    <path style="fill:currentColor;color:#dfdfdf" d="M5.5 2A2.5 2.5 0 0 0 3 4.5v3a2.5 2.5 0 1 0 5 0v-3A2.5 2.5 0 0 0 5.5 2Zm6 0A2.5 2.5 0 0 0 9 4.5v3a2.5 2.5 0 1 0 5 0v-3A2.5 2.5 0 0 0 11.5 2Zm-6 1A1.5 1.5 0 0 1 7 4.5v3a1.5 1.5 0 0 1-3 0v-3A1.5 1.5 0 0 1 5.5 3Zm6 0A1.5 1.5 0 0 1 13 4.5v3a1.5 1.5 0 0 1-3 0v-3A1.5 1.5 0 0 1 11.5 3ZM2 9v1h1V9H2Z"/>
    <path style="fill:currentColor;color:#4285f4" d="M11 9v2H9v1h2v2h1v-2h2v-1h-2V9h-1Z"/>
</svg>
